X: 660
T: Considine's Grove   #2
R: reel
%S: s:2 b:10(5+5)
B: Francis O'Neill: "The Dance Music of Ireland" (1907) #660
Z: Transcribed by Frank Nordberg - http://www.musicaviva.com
F: http://www.musicaviva.com/abc/tunes/ireland/oneill-1001/0660/oneill-1001-0660-1.abc
M: C|
L: 1/8
K: Em
"^A"[|] D | E^DEF GFGA | BdAF DFAF | E^DEF GFGA | BdAF BEE "^B":| d | efge fgaf |
| efge fddf |[1 efge fgaf | gfed Bee :|[2 eBBA BcAF | GBAF BEE |]
